img/delete2.svg

<svg width="16" height="17" viewBox="0 0 16 17" fill="none" xmlns="http://www.w3.org/2000/svg">
<path fill-rule="evenodd" clip-rule="evenodd" d="M8.16456 14.6705C7.26123 14.6705 6.38056 14.6605 5.50923 14.6425C4.39456 14.6205 3.62323 13.8978 3.49723 12.7565C3.28723 10.8632 2.92789 6.40051 2.92456 6.35584C2.90189 6.08051 3.10723 5.83918 3.38256 5.81718C3.65389 5.80984 3.89923 6.00051 3.92123 6.27518C3.92456 6.32051 4.28323 10.7678 4.49123 12.6465C4.56256 13.2952 4.91256 13.6298 5.52989 13.6425C7.19656 13.6778 8.89723 13.6798 10.7306 13.6465C11.3866 13.6338 11.7412 13.3058 11.8146 12.6418C12.0212 10.7792 12.3812 6.32051 12.3852 6.27518C12.4072 6.00051 12.6506 5.80851 12.9232 5.81718C13.1986 5.83984 13.4039 6.08051 13.3819 6.35584C13.3779 6.40118 13.0166 10.8752 12.8086 12.7518C12.6792 13.9165 11.9099 14.6252 10.7486 14.6465C9.85989 14.6618 9.00256 14.6705 8.16456 14.6705" fill="#FC6733"/>
<path fill-rule="evenodd" clip-rule="evenodd" d="M13.8053 4.66357H2.5C2.224 4.66357 2 4.43957 2 4.16357C2 3.88757 2.224 3.66357 2.5 3.66357H13.8053C14.0813 3.66357 14.3053 3.88757 14.3053 4.16357C14.3053 4.43957 14.0813 4.66357 13.8053 4.66357" fill="#FC6733"/>
<path fill-rule="evenodd" clip-rule="evenodd" d="M11.6274 4.6634C10.8687 4.6634 10.21 4.12274 10.0607 3.37874L9.89871 2.56807C9.86471 2.44474 9.72404 2.3374 9.56404 2.3374H6.74204C6.58204 2.3374 6.44138 2.44474 6.40071 2.59874L6.24538 3.37874C6.09671 4.12274 5.43738 4.6634 4.67871 4.6634C4.40271 4.6634 4.17871 4.4394 4.17871 4.1634C4.17871 3.8874 4.40271 3.6634 4.67871 3.6634C4.96271 3.6634 5.20938 3.46074 5.26538 3.18207L5.42738 2.3714C5.59204 1.75007 6.13004 1.3374 6.74204 1.3374H9.56404C10.176 1.3374 10.714 1.75007 10.872 2.3414L11.0414 3.18207C11.0967 3.46074 11.3434 3.6634 11.6274 3.6634C11.9034 3.6634 12.1274 3.8874 12.1274 4.1634C12.1274 4.4394 11.9034 4.6634 11.6274 4.6634" fill="#FC6733"/>
</svg>

<svg width="16" height="17" viewBox="0 0 16 17" fill="none" xmlns="http://www.w3.org/2000/svg"><path fill-rule="evenodd" clip-rule="evenodd" d="M8.165 14.67c-.904 0-1.784-.01-2.656-.027-1.114-.023-1.886-.745-2.012-1.886-.21-1.894-.57-6.356-.572-6.401a.5.5 0 0 1 .458-.539c.27-.007.516.184.538.458.004.046.362 4.493.57 6.371.072.65.422.984 1.039.996 1.667.036 3.367.038 5.2.005.657-.013 1.011-.341 1.085-1.005.206-1.863.566-6.321.57-6.367a.51.51 0 0 1 .538-.458.5.5 0 0 1 .459.539c-.004.045-.365 4.52-.573 6.396-.13 1.164-.9 1.873-2.06 1.894-.89.016-1.746.024-2.584.024m5.64-10.006H2.5a.5.5 0 0 1 0-1h11.305a.5.5 0 0 1 0 1" fill="#FC6733"/><path fill-rule="evenodd" clip-rule="evenodd" d="M11.627 4.663c-.758 0-1.417-.54-1.566-1.284l-.162-.81c-.034-.124-.175-.232-.335-.232H6.742c-.16 0-.3.108-.341.262l-.156.78A1.603 1.603 0 0 1 4.68 4.663a.5.5 0 0 1 0-1 .6.6 0 0 0 .586-.48l.162-.812a1.362 1.362 0 0 1 1.315-1.034h2.822c.612 0 1.15.413 1.308 1.004l.17.841a.6.6 0 0 0 .585.481.5.5 0 0 1 0 1" fill="#FC6733"/></svg>
